third_party/noto/noto_2/emoji_u1f4d8.svg

<svg enable-background="new 0 0 128 128" version="1.1" viewBox="0 0 128 128" xmlns="http://www.w3.org/2000/svg"><path d="m106.02 121.68h-69.84c-1.66 0-1.26-1.35-1.26-3.01v-104.62c0-1.66 1.35-3.01 3.01-3.01h69.36c2.72 0 4.93 2.21 4.93 4.93v99.76c0 3.86-1.83 5.95-6.2 5.95z" fill="#01579B"/><path d="m18.53 115.14c0 1.94 3.07 3.57 5.01 3.57l80.39-0.05c2.98 0 4.54-1.58 4.54-3.52l-0.25-21.32h-89.69v21.32z" fill="#94C6D6"/><path d="m101.47 105.88s-2.13 5.85 0.03 8.78c2.51 3.4 6.89 2.58 6.89 0.99v-99.21c0-0.66-0.61-1.14-1.25-1-1.39 0.3-3.89 0.31-7.21-1.89l1.54 92.33z" fill="#F5F5F5"/><path d="m94.16 110.85h-70.52v-104.4h72.25c2.27 0 3.87 0.61 4.62 1.62 0.98 1.31 1.5 3.3 1.5 5.48v89.45c0 4.33-3.51 7.85-7.85 7.85z" fill="#01579B"/><path d="m92.01 107.78h-66.47c-2.76 0-4.99-2.24-4.99-4.99v-91.34c0-2.76 2.24-4.99 4.99-4.99h66.47c3.82 0 6.92 2.18 6.92 6.92v87.49c-0.01 3.81-3.1 6.91-6.92 6.91z" fill="#0091EA"/><path d="m34.43 109.75s-0.05-101.82-0.05-103.29h-11.2s-2.31-0.4-3.85 0c-2.79 0.73-3.56 2.76-3.56 6.07v94.41c0 6.7 0.41 9.6 2.44 11.72-0.12-1.54 0.87-6.83 1.68-8.28 0.72-1.28 14.54-0.63 14.54-0.63z" fill="#616161"/><line x1="23.18" x2="23.18" y1="6.45" y2="110.85" fill="none" stroke="#424242" stroke-miterlimit="10" stroke-width="2"/><path d="m34.38 109.34-11.3 0.22c-3.77 0-5.06 4.04-4.39 6.71 0.84 3.37 4.32 3.92 5.18 3.92s12.65 0 12.65 0" fill="none" stroke="#424242" stroke-miterlimit="10" stroke-width="3"/></svg>

<?xml version="1.0" encoding="utf-8"?>
<!-- Generator: Adobe Illustrator 25.2.3, SVG Export Plug-In . SVG Version: 6.00 Build 0)  -->
<svg version="1.1" id="Layer_1" xmlns="http://www.w3.org/2000/svg" xmlns:xlink="http://www.w3.org/1999/xlink" x="0px" y="0px"
	 viewBox="0 0 128 128" style="enable-background:new 0 0 128 128;" xml:space="preserve">
<g>
	<path style="fill:#01579B;" d="M106.02,121.68H36.18c-1.66,0-1.26-1.35-1.26-3.01V14.05c0-1.66,1.35-3.01,3.01-3.01h69.36
		c2.72,0,4.93,2.21,4.93,4.93v99.76C112.22,119.59,110.39,121.68,106.02,121.68z"/>
	<path style="fill:#94C6D6;" d="M18.53,115.14c0,1.94,3.07,3.57,5.01,3.57l80.39-0.05c2.98,0,4.54-1.58,4.54-3.52l-0.25-21.32H18.53
		V115.14z"/>
	<path style="fill:#F5F5F5;" d="M101.47,105.88c0,0-2.13,5.85,0.03,8.78c2.51,3.4,6.89,2.58,6.89,0.99V16.44
		c0-0.66-0.61-1.14-1.25-1c-1.39,0.3-3.89,0.31-7.21-1.89L101.47,105.88z"/>
	<path style="fill:#01579B;" d="M94.16,110.85H23.64V6.45c0,0,69.99,0,72.25,0c2.27,0,3.87,0.61,4.62,1.62
		c0.98,1.31,1.5,3.3,1.5,5.48V103C102.01,107.33,98.5,110.85,94.16,110.85z"/>
	<path style="fill:#0091EA;" d="M92.01,107.78H25.54c-2.76,0-4.99-2.24-4.99-4.99V11.45c0-2.76,2.24-4.99,4.99-4.99h66.47
		c3.82,0,6.92,2.18,6.92,6.92v87.49C98.92,104.68,95.83,107.78,92.01,107.78z"/>
	<path style="fill:#616161;" d="M34.43,109.75c0,0-0.05-101.82-0.05-103.29h-11.2c0,0-2.31-0.4-3.85,0
		c-2.79,0.73-3.56,2.76-3.56,6.07c0,0,0,94.41,0,94.41c0,6.7,0.41,9.6,2.44,11.72c-0.12-1.54,0.87-6.83,1.68-8.28
		C20.61,109.1,34.43,109.75,34.43,109.75z"/>
	<line style="fill:none;stroke:#424242;stroke-width:2;stroke-miterlimit:10;" x1="23.18" y1="6.45" x2="23.18" y2="110.85"/>
	<path style="fill:none;stroke:#424242;stroke-width:3;stroke-miterlimit:10;" d="M34.38,109.34l-11.3,0.22
		c-3.77,0-5.06,4.04-4.39,6.71c0.84,3.37,4.32,3.92,5.18,3.92s12.65,0,12.65,0"/>
</g>
</svg>
